X: 1
T: the Blooming Meadows
S: handwritten MS by Barbara McOwen (Nov 89), via Terry Traub
R: jig
Z: 2006 John Chambers <jc:trillian.mit.edu>
M: 6/8
L: 1/8
K: D
A \
| "D"d2f fef | "G"d2g gfg | "D"f2d dcd | "A7"ecA ABc \
| "D"d2f fef | "G"d2g "Em"g3 | "D"fed "A7"cBc | "D"d3 d2 :|
|: B \
| "D"ABA F2G | "D"A2d dcB | "D"ABA "Bm"FGA | "Em"BGE "A7"EFG \
| "D"ABA "(A)"F2G | "D"A2a "G"a2g | "D"fed "A7"edc | "D"d3 d2 :|
